assets/features/global-acquiring/icon_active4.svg

<svg width="104" height="104" viewBox="0 0 104 104" fill="none" xmlns="http://www.w3.org/2000/svg">
<g filter="url(#filter0_d_1540_4657)">
<rect x="12" y="4" width="80" height="80" rx="20" fill="white"/>
<path d="M42.6414 43.0635C42.6414 39.0642 45.9434 37.0646 46.0754 36.9313C44.2263 34.1318 41.3206 33.8652 40.264 33.7319C37.7545 33.4653 35.5091 35.1983 34.1884 35.1983C32.9996 35.1983 31.0185 33.7319 28.9052 33.8652C26.2636 33.8652 23.7541 35.4649 22.3013 37.8645C19.5276 42.6636 21.6409 49.9955 24.4145 53.9948C25.7353 55.9944 27.3203 58.1274 29.4335 57.9941C31.4147 57.8607 32.2072 56.661 34.5846 56.661C36.962 56.661 37.7545 57.9941 39.8677 57.9941C41.981 57.9941 43.4339 55.9944 44.7547 54.1281C46.3396 51.8619 46.8679 49.7289 47 49.5956C46.7358 49.4623 42.6414 47.8626 42.6414 43.0635ZM38.547 31.0657C39.6036 29.7326 40.3961 27.8663 40.1319 26C38.547 26 36.5658 27.0665 35.5091 28.3996C34.4525 29.5993 33.528 31.4657 33.7921 33.332C35.6412 33.4653 37.4903 32.3988 38.547 31.0657Z" fill="#040000"/>
<g clip-path="url(#clip0_1540_4657)">
<path d="M59.9402 44.1224C59.9402 43.1059 60.1115 42.1318 60.4146 41.217L55.0932 37.1887C54.0224 39.3433 53.467 41.7173 53.4706 44.1233C53.4706 46.6146 54.0541 48.9657 55.0894 51.0522L60.4099 47.0174C60.0993 46.0841 59.9407 45.1069 59.9402 44.1233" fill="#FBBC05"/>
<path d="M69.2889 34.8743C71.4094 34.8699 73.4664 35.598 75.112 36.9355L79.7134 32.384C76.9096 29.9652 73.3153 28.4706 69.2889 28.4706C63.0376 28.4706 57.6654 32.0132 55.0931 37.1887L60.4183 41.2169C61.6447 37.5275 65.1402 34.8734 69.2908 34.8734" fill="#EA4335"/>
<path d="M69.3567 53.1661C65.1845 53.1661 61.6711 50.5298 60.4381 46.8621L55.0885 50.8658C57.6739 56.0094 63.0734 59.5294 69.3577 59.5294C73.2334 59.5294 76.9342 58.1816 79.7134 55.6526L74.6349 51.8061C73.2033 52.6908 71.3981 53.167 69.3558 53.167" fill="#34A853"/>
<path d="M84.5294 43.9756C84.5294 43.057 84.3845 42.0659 84.168 41.1473H69.3549V47.1568H77.881C77.4556 49.2066 76.296 50.7812 74.6349 51.8062L79.7125 55.6528C82.6311 52.9996 84.5294 49.0457 84.5294 43.9756Z" fill="#4285F4"/>
</g>
</g>
<defs>
<filter id="filter0_d_1540_4657" x="0" y="0" width="104" height="104" filterUnits="userSpaceOnUse" color-interpolation-filters="sRGB">
<feFlood flood-opacity="0" result="BackgroundImageFix"/>
<feColorMatrix in="SourceAlpha" type="matrix" values="0 0 0 0 0 0 0 0 0 0 0 0 0 0 0 0 0 0 127 0" result="hardAlpha"/>
<feOffset dy="8"/>
<feGaussianBlur stdDeviation="6"/>
<feComposite in2="hardAlpha" operator="out"/>
<feColorMatrix type="matrix" values="0 0 0 0 0.586538 0 0 0 0 0.586538 0 0 0 0 0.586538 0 0 0 0.25 0"/>
<feBlend mode="normal" in2="BackgroundImageFix" result="effect1_dropShadow_1540_4657"/>
<feBlend mode="normal" in="SourceGraphic" in2="effect1_dropShadow_1540_4657" result="shape"/>
</filter>
<clipPath id="clip0_1540_4657">
<rect width="32" height="32" fill="white" transform="translate(53 28)"/>
</clipPath>
</defs>
</svg>

<svg xmlns="http://www.w3.org/2000/svg" width="104" height="104" fill="none" viewBox="0 0 104 104"><g filter="url(#a)"><rect width="80" height="80" x="12" y="4" fill="#fff" rx="20"/><path fill="#040000" d="M42.641 43.064c0-4 3.302-6 3.434-6.133-1.849-2.8-4.754-3.066-5.811-3.2-2.51-.266-4.755 1.467-6.076 1.467-1.188 0-3.17-1.466-5.283-1.333-2.641 0-5.15 1.6-6.604 4-2.773 4.799-.66 12.13 2.114 16.13 1.32 2 2.905 4.132 5.018 4 1.982-.134 2.774-1.334 5.152-1.334 2.377 0 3.17 1.333 5.283 1.333s3.566-2 4.887-3.866c1.585-2.266 2.113-4.4 2.245-4.532-.264-.134-4.359-1.733-4.359-6.532m-4.094-11.998c1.057-1.333 1.85-3.2 1.585-5.066-1.585 0-3.566 1.067-4.623 2.4-1.056 1.2-1.981 3.066-1.717 4.932 1.85.133 3.698-.933 4.755-2.266"/><g clip-path="url(#b)"><path fill="#fbbc05" d="M59.94 44.122c0-1.016.172-1.99.475-2.905l-5.322-4.028a15.5 15.5 0 0 0-1.622 6.934c0 2.492.583 4.843 1.618 6.93l5.32-4.036a9.2 9.2 0 0 1-.469-2.894"/><path fill="#ea4335" d="M69.289 34.874a9.2 9.2 0 0 1 5.823 2.061l4.601-4.551c-2.803-2.419-6.398-3.913-10.424-3.913-6.251 0-11.624 3.542-14.196 8.718l5.325 4.028c1.227-3.69 4.722-6.344 8.873-6.344"/><path fill="#34a853" d="M69.357 53.166c-4.172 0-7.686-2.636-8.919-6.304l-5.35 4.004c2.586 5.143 7.985 8.663 14.27 8.663 3.875 0 7.576-1.347 10.355-3.876l-5.078-3.847c-1.432.885-3.237 1.361-5.28 1.361"/><path fill="#4285f4" d="M84.53 43.976c0-.919-.145-1.91-.362-2.829H69.355v6.01h8.526c-.425 2.05-1.585 3.624-3.246 4.65l5.078 3.846c2.918-2.653 4.816-6.607 4.816-11.677"/></g></g><defs><clipPath id="b"><path fill="#fff" d="M53 28h32v32H53z"/></clipPath><filter id="a" width="104" height="104" x="0" y="0" color-interpolation-filters="sRGB" filterUnits="userSpaceOnUse"><feFlood flood-opacity="0" result="BackgroundImageFix"/><feColorMatrix in="SourceAlpha" result="hardAlpha" values="0 0 0 0 0 0 0 0 0 0 0 0 0 0 0 0 0 0 127 0"/><feOffset dy="8"/><feGaussianBlur stdDeviation="6"/><feComposite in2="hardAlpha" operator="out"/><feColorMatrix values="0 0 0 0 0.586538 0 0 0 0 0.586538 0 0 0 0 0.586538 0 0 0 0.25 0"/><feBlend in2="BackgroundImageFix" result="effect1_dropShadow_1540_4657"/><feBlend in="SourceGraphic" in2="effect1_dropShadow_1540_4657" result="shape"/></filter></defs></svg>
